teeny/solid/info-circle.svg

<svg width="15" height="15" viewBox="0 0 15 15" fill="none" xmlns="http://www.w3.org/2000/svg">
<path fill-rule="evenodd" clip-rule="evenodd" d="M15 7.5C15 11.6421 11.6421 15 7.5 15C3.35786 15 0 11.6421 0 7.5C0 3.35786 3.35787 0 7.5 0C11.6421 0 15 3.35786 15 7.5ZM7 4.99999V3.98999H8V4.99999H7ZM8 6.99999V9.99999H9V11H6V9.99999H7V7.99999H6V6.99999H8Z" fill="black"/>
</svg>

<svg viewBox="0 0 15 15" xmlns="http://www.w3.org/2000/svg"><path fill-rule="evenodd" d="M15 7.5c0 4.14-3.36 7.5-7.5 7.5C3.35 15 0 11.64 0 7.5 0 3.35 3.35 0 7.5 0 11.64 0 15 3.35 15 7.5ZM7 4.99V3.98h1v1.01H7Zm1 2v3h1v1H6V9.98h1v-2H6v-1h2Z"/></svg>
